packages/ffe-icons/icons/filled/lg/browse.svg

<svg xmlns="http://www.w3.org/2000/svg" height="40" viewBox="0 -960 960 960" width="40"><path d="M140.001-432.82v-324.615q0-25.788 18.388-44.176t44.176-18.388h242.307v387.179H140.001Zm375.127-387.179h242.307q25.788 0 44.176 18.388t18.388 44.304v159.615H515.128v-222.307Zm0 679.998v-387.435h304.871v324.871q0 25.788-18.388 44.176t-44.176 18.388H515.128ZM140.001-362.564h304.871v222.563H202.565q-25.788 0-44.176-18.388t-18.388-44.304v-159.871Z"/></svg>

<svg xmlns="http://www.w3.org/2000/svg" viewBox="0 -960 960 960" width="32" height="32"><path d="M140-432.82v-324.61q0-25.79 18.39-44.18T202.57-820h242.3v387.18H140ZM515.13-820h242.3q25.79 0 44.18 18.39t18.39 44.3v159.62H515.13V-820Zm0 680v-387.44H820v324.87q0 25.79-18.39 44.18T757.43-140h-242.3ZM140-362.56h304.87V-140h-242.3q-25.79 0-44.18-18.39T140-202.69v-159.87Z"/></svg>
